X: 1
T: Phesim Dumbuggin
N: The "si" part of the title is somewhat unclear.
%R: slip-jig
B: "Twenty Four Country Dances with Figures for the Year 1809", Button & Whitaker, p.1 #1
F: http://www.vwml.org/browse/browse-collections-dance-tune-books/browse-button1809
Z: 2014 John Chambers <jc:trillian.mit.edu>
M: 9/8
L: 1/8
K: A
% - - - - - - - - - - - - - - - - - - - - - - - - - - - - -
|:\
dBA GFE GEF | ABc cde e2c |\
dBA GFE GFE | ABc dBG A3 :|
|:\
fgf agf edc | ded fed c2c |\
dBA GFE GFE | Ace dBG A3 :|
% - - - - - - - - - - Dance description - - - - - - - - - -
%%begintext align
%% Hands 6 quite round, back again, down the
%% mid: up again, Promenade & Pousette.
%%endtext
